src/img/graphics/heart.svg

<svg class="heart" viewBox="0 0 143 132">
	<path d="M71.29 55.304c-2.239-9.684-4.727-19.617-6.468-29.798-.747-5.215-.747-10.678.497-15.893C67.31.674 75.768-2.555 83.481 2.164c3.732 2.483 7.215 5.711 10.2 9.187 9.703 10.678 15.425 23.839 20.899 36.752 8.21 19.369 16.171 38.986 23.635 58.604 2.239 5.463 3.483 11.671 3.732 17.631.497 5.959-2.488 8.442-8.459 7.449-10.45-1.738-21.148-3.476-31.348-6.456-19.903-5.712-39.558-12.913-57.47-23.342-15.923-9.188-29.358-21.108-39.309-36.504-1.742-2.483-2.986-5.463-3.981-8.194-5.225-14.899 4.976-27.067 20.65-25.081 9.205 1.242 17.664 4.967 25.874 9.437 8.459 4.718 16.171 9.436 23.386 13.657z" />
</svg>

<?xml version="1.0" encoding="UTF-8" standalone="no"?>
<!DOCTYPE svg PUBLIC "-//W3C//DTD SVG 1.1//EN" "http://www.w3.org/Graphics/SVG/1.1/DTD/svg11.dtd">
<svg width="100%" height="100%" viewBox="0 0 143 132" version="1.1" xmlns="http://www.w3.org/2000/svg" xmlns:xlink="http://www.w3.org/1999/xlink" xml:space="preserve" xmlns:serif="http://www.serif.com/" style="fill-rule:evenodd;clip-rule:evenodd;stroke-linejoin:round;stroke-miterlimit:2;">
    <g transform="matrix(1,0,0,1,-28.5,-213.433)">
        <g transform="matrix(1,0,0,1,28.5,213.433)">
            <path d="M71.29,55.304C69.051,45.62 66.563,35.687 64.822,25.506C64.075,20.291 64.075,14.828 65.319,9.613C67.31,0.674 75.768,-2.555 83.481,2.164C87.213,4.647 90.696,7.875 93.681,11.351C103.384,22.029 109.106,35.19 114.58,48.103C122.79,67.472 130.751,87.089 138.215,106.707C140.454,112.17 141.698,118.378 141.947,124.338C142.444,130.297 139.459,132.78 133.488,131.787C123.038,130.049 112.34,128.311 102.14,125.331C82.237,119.619 62.582,112.418 44.67,101.989C28.747,92.801 15.312,80.881 5.361,65.485C3.619,63.002 2.375,60.022 1.38,57.291C-3.845,42.392 6.356,30.224 22.03,32.21C31.235,33.452 39.694,37.177 47.904,41.647C56.363,46.365 64.075,51.083 71.29,55.304Z" style="fill:rgb(247,141,43);fill-rule:nonzero;"/>
        </g>
    </g>
</svg>
